X:1
T:Singapore, 76.76 D
T:Winfield Scott Weeden, 1897
T:Singapore, 76.76 D
T:Public Domain
C:Winfield Scott Weeden, 1897
Z:Public Domain
%%score ( 1 2 ) ( 3 4 )
L:1/8
M:6/8
K:F
V:1 treble 
V:2 treble 
V:3 bass 
V:4 bass 
V:1
 C | [FA]2 [FA] [CF]2 [CG] | [CF]3 C2 C | [B,D]2 [DF] [DF]2 [B,D] | [A,F]3- [A,F]2 C | %5
 C2 C [CF]2 [CG] | [CA]3 [CF]2 [FA]/[FA]/ | [FG]2 [FG] [FG]2 D | [EG]3- [EG]2 [CB] | %9
 [CA]2 [FA] [F^G]2 [FG] | [FA]3 [CF]2 [_EF] | [DF]2 [DF] [FB]2 [Fd] | [Fc]3- [Fc]2 [FA] | %13
 [Fc]2 [Fc] [Fc]2 [FA] | [DG]3 [DF]2 [FB] | [FA]2 [FA] [EA]2 [EG] | F3- F2 |] %17
V:2
 C | x6 | x3 C2 C | x6 | x5 C | C2 C x3 | x6 | x5 D | x6 | x6 | x6 | x6 | x6 | x6 | x6 | x6 | %16
 F3- F2 |] %17
V:3
 [F,A,] | [F,C]2 [F,C] [F,A,]2 [F,B,] | [F,A,]3 [F,A,]2 [A,,F,] | %3
 [B,,F,]2 [B,,F,] [B,,F,]2 [B,,F,] | [F,,F,]3- [F,,F,]2 [F,A,] | [E,G,]2 [C,E,] [A,,F,]2 [C,E,] | %6
 F,3 [F,A,]2 [F,C]/[F,C]/ | [D,=B,]2 [D,B,] [G,B,]2 [G,B,] | (C2 _B,) [C,G,]2 [C,E,] | %9
 F,2 [F,C] [F,=B,]2 [F,B,] | [F,C]3 [F,A,]2 [F,A,] | [B,,B,]2 [B,,B,] [D,B,]2 [B,,B,] | %12
 [F,A,]3- [F,A,]2 [F,C] | [F,A,]2 [F,A,] [F,A,]2 [F,C] | [B,,B,]3 [B,,B,]2 [G,,D] | %15
 [C,C]2 [C,C] [C,C]2 [C,C] | [F,A,]3- [F,A,]2 |] %17
V:4
 x | x6 | x6 | x6 | x6 | x6 | F,3 x3 | x6 | C,3- x3 | F,2 x4 | x6 | x6 | x6 | x6 | x6 | x6 | x5 |] %17

